X:1
T: John Forbes (Solicitor, Banff)
C:Alexander Walker
R:Strathspey
Q: 128
K:Em
M:4/4
L:1/16
|:F2|B,3E F3D EEE2 E4|B3E G3E A3D F3D|B,3E F3D EE3 B3e|d3B A3G EEE2 E2F2|
B,3E F3D EEE2 E4|B3E G3E A3D F3D|B,3E F3D EE3 B3e|d3B A3G EEE2 E2f2|
g3e B3e E3e B3^c|d3A F3A F3d BAGF|g3e B3e E3e B3^c|d3A BAGF BE3 E3f|
e3f g3e f3d e3B|d3f A3d F3d BAGF|E3G F3A G3B A3e|d3B A3F EEE2 E2:|
